!!!COA:	Josquin des Prez
!!!CDT:	~1450-1521/08/27
!!!OTL:	Credo Vilayge II
!!!AGN:	Mass section; Credo
!!!SCT:	NJE 13.6
!!!SCA:	New Josquin Edition 13.6
!!!voices:	4
**kern	**kern	**kern	**kern
*staff4	*staff3	*staff2	*staff1
*Ivox	*Ivox	*Ivox	*Ivox
*I"Bassus	*I"Tenor	*I"Altus	*I"Superius
*I'B	*I'T	*I'A	*I'S
*>[A,B]	*>[A,B]	*>[A,B]	*>[A,B]
*>A	*>A	*>A	*>A
*clefF4	*clefGv2	*clefGv2	*clefG2
*k[]	*k[]	*k[]	*k[]
*M2/1	*M2/1	*M2/1	*M2/1
*met(C|)	*met(C|)	*met(C|)	*met(C|)
!!incipit: 6
=1-	=1-	=1-	=1-
0A	0e	0A	0a
=2	=2	=2	=2
0D	0f	0d	0a
=3	=3	=3	=3
1.A	1e	1.c	1r
.	1e	.	1cc
2G\	.	2B\	.
=4	=4	=4	=4
1F	1d	1A	1dd
1E	1c	1G	1ee
=5	=5	=5	=5
0D	0d	1A	2.ff\
.	.	.	4ee\
.	.	1f	4dd\
.	.	.	4cc\
.	.	.	[2dd\
=6	=6	=6	=6
0G	1d	1g	4dd\]
.	.	.	4cc\
.	.	.	4b\
.	.	.	4a/
.	2r	1g	1b
.	2d\	.	.
=7	=7	=7	=7
0D	2d\	2f\	2a/
.	2d\	2d\	2a/
.	2d\	2.f\	2a/
.	2d\	.	2a/
.	.	4e\	.
=8	=8	=8	=8
0A	1e	2c\	2.cc\
.	.	2c\	.
.	.	.	4b\
.	1e	2.c\	2a/
.	.	.	2g/
.	.	4A/	.
=9	=9	=9	=9
1D	2d\	2A/	2f/
.	2d\	2.B-i\	2f/
1G	2d\	.	2b-i\
.	.	4c\	.
.	2d\	4d\	2b-i\
.	.	4e\	.
=10	=10	=10	=10
1F	2d\	2f\	2a/
.	2d\	2.d\	2a/
1B-i	2d\	.	2dd\
.	.	4e\	.
.	2d\	4f\	2dd\
.	.	4g\	.
=11	=11	=11	=11
2.A\	2e\	1a	2cc\
.	2e\	.	2cc\
8B\L	.	.	.
8c\J	.	.	.
2d\	2f\	1r	2b\
[2c\	[2e\	.	[2a/
=12	=12	=12	=12
2c\]	4e\]	0r	4a/]
.	4d\	.	4g/
2B\	1d	.	1g
1A	.	.	.
.	2c\	.	2f#i/
=13	=13	=13	=13
[0G	1d	2r	2g/
.	.	1g	1b
.	2r	.	.
.	[2d\	2g\	2b\
=14	=14	=14	=14
0G]	2d\]	2g\	2b\
.	2d\	2d\	2b\
.	2d\	2g\	2b\
.	2d\	2g\	2b\
=15	=15	=15	=15
1r	2d\	1f	1a
.	2d\	.	.
1D	2d\	2r	1ff
.	2d\	2d\	.
=16	=16	=16	=16
1A	1c	2e\	1ee
.	.	2.a\	.
1B-i	1d	.	1dd
.	.	4f\	.
.	.	2g\	.
=17	=17	=17	=17
0A	0e	1a	1.cc
.	.	2r	.
.	.	2A/	2cc\
=18	=18	=18	=18
0r	2r	2B\	2dd\
.	2e\	2c\	2ee\
.	2f\	2d\	2a/
.	2e\	2A/	2cc\
=19	=19	=19	=19
2r	2d\	1a	3dd\V
.	.	.	3ff\
2A\	2c\	.	.
.	.	.	3ee\Z
2B\	2d\	2r	3dd\V
.	.	.	3ff\
2c\	2e\	[2a\	.
.	.	.	3ee\Z
=20	=20	=20	=20
2d\	2f\	2a\]	3dd\V
.	.	.	3ff\
2B\	2d\	2g\	.
.	.	.	3ee\Z
1A	1e	2a\	3dd\V
.	.	.	3.cc#i\
.	.	2a\	.
.	.	.	6b\Z
=21	=21	=21	=21
2r	1d	1f	1dd
1B-i	.	.	.
.	2d\	2r	2r
2B-i\	2d\	2d\	2dd\
=22	=22	=22	=22
2B-i\	2d\	2f\	2dd\
2B-i\	2d\	2d\	2dd\
1B-i	1d	2f\	2dd\
.	.	2g\	2dd\
=23	=23	=23	=23
2A\	2e\	2a\	1cc
2A\	2e\	2A/	.
2.c\	2e\	2A/	1r
.	2e\	2A/	.
4B\	.	.	.
=24	=24	=24	=24
2A\	2.f\	2.c\	0r
2G\	.	.	.
.	4e\	4B\	.
2F\	2d\	2A/	.
2E\	2c#i\	2G/	.
=25	=25	=25	=25
0D	1d	0A	2r
.	.	.	2ff\
.	2r	.	1ff
.	2d\	.	.
=26	=26	=26	=26
0r	2c\	0r	2ee\
.	2d\	.	1dd
.	1e	.	.
.	.	.	2cc#i\
=27	=27	=27	=27
2r	1d	2r	2dd\
2D\	.	2f\	2a/
2G\	2r	2g\	2b-i\
2F\	2d\	2a\	2a/
=28	=28	=28	=28
2.B-i\	2d\	1.f	2.dd\
.	2d\	.	.
4A\	.	.	4cc\
2F\	2d\	.	2a/
2G\	2d\	2B-\	2b-i\
=29	=29	=29	=29
1D	1d	1f	1a
2r	2r	2r	2r
2G\	2B\	2d\	2g/
=30	=30	=30	=30
2.F\	1c	1f	1a
4E\	.	.	.
1D	1d	1f	1b
=31	=31	=31	=31
1C	1e	2g\	2.cc\
.	.	2G/	.
.	.	.	4b\
2r	2r	2.c\	2a/
2C/	2e\	.	2g/
.	.	4B\	.
=32	=32	=32	=32
2D\	2d\	2A/	2f/
2E\	2c\	2G/	2.g/
1D	1d	1A	.
.	.	.	4f#i/
.	.	.	4f#i/
.	.	.	4e/
=33	=33	=33	=33
0G	0d	1G	2g/
.	.	.	2.dd\
.	.	2.g\	.
.	.	.	4dd\
.	.	.	2dd\
.	.	4g\	.
=34	=34	=34	=34
0r	0r	2g\	2ee\
.	.	2g\	2.dd\
.	.	2.g\	.
.	.	.	4b\
.	.	.	2b\
.	.	4e\	.
=35	=35	=35	=35
0r	0r	2e\	2cc\
.	.	2f\	2a/
.	.	2d\	2b\
.	.	2e\	2cc\
=36	=36	=36	=36
0r	0r	2f\	2.dd\
.	.	2.g\	.
.	.	.	4cc\
.	.	.	4b\
.	.	4f\	4a/
.	.	4e\	[2cc\
.	.	4d\	.
=37	=37	=37	=37
0r	0r	2c\	4cc\]
.	.	.	4b\
.	.	2d\	1a
.	.	1B	.
.	.	.	2g#i/
=38	=38	=38	=38
2r	2r	1A	1a
2A\	2e\	.	.
2F\	2f\	1r	1r
2G\	2e\	.	.
=39	=39	=39	=39
2A\	2c\	1r	2r
2F\	2d\	.	2a/
2G\	2d\	2r	2b-i\
2A\	2c#i\	2A/	2a/
=40	=40	=40	=40
2D\	0d	4B\	2f/
.	.	4A/	.
2G\	.	4B\	2g/
.	.	4G/	.
1D	.	1A	2g/
.	.	.	2f#i/
=41	=41	=41	=41
1G	0r	2G/	1g
.	.	2B\	.
1r	.	2c\	2e/
.	.	2d\	2f/
=42	=42	=42	=42
0r	0r	2B\	2g/
.	.	2c\	2e/
.	.	2d\	2f/
.	.	2e\	2g/
=43	=43	=43	=43
2r	2c\	0r	2a/
2F\	2d\	.	2r
2G\	2e\	.	1r
2A\	2f\	.	.
=44	=44	=44	=44
2B-i\	2d\	0r	0r
2G\	2e\	.	.
2A\	2f\	.	.
2B-i\	2g\	.	.
=45	=45	=45	=45
2c\	0r	2e\	0r
2A\	.	2f\	.
2B-i\	.	2g\	.
2c\	.	[2a\	.
=46	=46	=46	=46
2d\	0r	4a\]	0r
.	.	4g\	.
2G\	.	1g	.
1A	.	.	.
.	.	2f#i\	.
=47	=47	=47	=47
0G	1r	1g	1r
.	2r	2r	2r
.	2d\	2G/	2g/
=48	=48	=48	=48
0r	2e\	2c\	2g/
.	2d\	2B\	2g/
.	2e\	2c\	2g/
.	2d\	2B\	2g/
=49	=49	=49	=49
2r	1d	1G	1g
2G\	.	.	.
2c\	2e\	1r	2g/
2B\	2d\	.	2g/
=50	=50	=50	=50
2c\	2e\	0r	2g/
2A\	2c\	.	2f/
1G	1d	.	[1g
=51	=51	=51	=51
1c	1e	2r	2g/]
.	.	1c	4f/
.	.	.	4g/
2r	2r	.	1a
2A\	2e\	2c\	.
=52	=52	=52	=52
2F\	2f\	2d\	2a/
2G\	1e	2B-i\	2b-i\
2A\	.	2c\	2a/
2D\	2d\	2d\	[2b-i\
=53	=53	=53	=53
1E	2d\	1G	4b-\]
.	.	.	4a/
.	2c\	.	1g
1D	1d	1A	.
.	.	.	2f#i/
=54	=54	=54	=54
1r	0e	2r	1g
.	.	2c\	.
1C	.	1c	2r
.	.	.	2g/
=55	=55	=55	=55
2F\	0f	2A/	2.a/
2D\	.	2d\	.
.	.	.	4g/
2.F\	.	2c\	4a/
.	.	.	4b\
.	.	2A/	[2cc\
4E\	.	.	.
=56	=56	=56	=56
4C/	1e	2.c\	4cc\]
4D\	.	.	4b\
4E\	.	.	2g/
4F\	.	4B\	.
2G\	1d	2G/	2b\
2D\	.	2F/	[2a/
=57	=57	=57	=57
1E	1c	1G	4a/]
.	.	.	4g/
.	.	.	1g
1D	1d	1A	.
.	.	.	2f#i/
=58	=58	=58	=58
0Gl	0dl	0Gl	0gl
!!LO:LB:i:g=z
=59||	=59||	=59||	=59||
*>B	*>B	*>B	*>B
*clefF4	*clefGv2	*clefGv2	*clefG2
*k[]	*k[]	*k[]	*k[]
*M2/1	*M2/1	*M2/1	*M2/1
*met(C|)	*met(C|)	*met(C|)	*met(C|)
!!section: Crucifixus
!!!OMD: Crucifixus
0r	1d	1f	1a
.	2d\	2f\	2a/
.	[2d\	[2f\	[2a/
=60	=60	=60	=60
0r	2d\]	2f\]	2a/]
.	2d\	2f\	2a/
.	2d\	2f\	2b\
.	2d\	2f\	2a/
=61	=61	=61	=61
0r	2d\	2f\	2b\
.	2c\	2e\	2cc\
.	1d	1f	1a
=62	=62	=62	=62
0r	0e	2g\	1g
.	.	2.c\	.
.	.	.	2r
.	.	4d\	.
.	.	4e\	2g/
.	.	4f\	.
=63	=63	=63	=63
0r	2r	2.g\	2b\
.	2e\	.	2cc\
.	.	4f\	.
.	2f\	2d\	2dd\
.	2e\	[2c\	[2ee\
=64	=64	=64	=64
0r	2c\	2c\]	4ee\]
.	.	.	4dd\
.	2d\	2B\	1dd
.	1e	1A	.
.	.	.	2cc#i\
=65	=65	=65	=65
2r	2d\	1.a	2dd\
1A	1e	.	1cc
2A\	2e\	2a\	2cc\
=66	=66	=66	=66
2A\	2.f\	2a\	2cc\
2F\	.	2a\	2a/
.	4e\	.	.
2G\	2d\	2g\	2b\
2A\	2c\	2e\	2cc\
=67	=67	=67	=67
0D	0d	1.f	1a
.	.	.	2r
.	.	4e\	[2dd\
.	.	4f\	.
=68	=68	=68	=68
1G	0r	4g\	2dd\]
.	.	4d\	.
.	.	1g	4cc\
.	.	.	4b\
2G\	.	.	2ee\
2G\	.	4f\	[2dd\
.	.	4e\	.
=69	=69	=69	=69
1G	0r	2d\	2dd\]
.	.	2.g\	4cc\
.	.	.	4b\
2G\	.	.	2ee\
.	.	4f\	.
2G\	.	2d\	[2dd\
=70	=70	=70	=70
2G\	0r	2e\	4dd\]
.	.	.	4cc\
2F\	.	2f\	2a/
1G	.	1d	4b\
.	.	.	4a/
.	.	.	4g/
.	.	.	4f/
=71	=71	=71	=71
1A	1r	1.c	2.e/
.	.	.	4d/
1c	2r	.	1e
.	2e\	4B\	.
.	.	4A/	.
=72	=72	=72	=72
2B\	1f	2d\	0r
1A	.	2.c\	.
.	2e\	.	.
.	.	4B\	.
2F\	2d\	[2A/	.
=73	=73	=73	=73
1E	2.c#i\	2A/]	2r
.	.	2G/	2ee\
.	4B\	.	.
1D	1d	2A/	1ff
.	.	[2a\	.
=74	=74	=74	=74
0r	0r	2a\]	2ee\
.	.	2f\	1dd
.	.	1e	.
.	.	.	2cc#i\
=75	=75	=75	=75
2r	0r	1d	1dd
2G\	.	.	.
2G\	.	2G/	1r
2G\	.	[2d\	.
=76	=76	=76	=76
2G\	0r	4d\]	0r
.	.	4c\	.
2F\	.	2A/	.
1G	.	2.B-i\	.
.	.	4A/	.
=77	=77	=77	=77
1A	2r	4F/	1r
.	.	4G/	.
.	2e\	4A/	.
.	.	4B-i\	.
1A	2e\	4c\	2r
.	.	4d\	.
.	2e\	[2c\	2a/
=78	=78	=78	=78
2F\	1f	2c\]	2a/
2F\	.	4B-i\	2a/
.	.	4A/	.
2G\	2e\	4G/	2.b-i\
.	.	4A/	.
2G\	[2d\	4B-i\	.
.	.	4c\	4a/
=79	=79	=79	=79
2D\	2d\]	2d\	2a/
2E\	2c\	2G/	2.g/
1D	1d	1A	.
.	.	.	4f#i/
.	.	.	4f#i/
.	.	.	4e/
=80	=80	=80	=80
2r	1d	1G	2g/
2G\	.	.	2g/
2B\	2d\	2r	2g/
2B\	2d\	2G/	2g/
=81	=81	=81	=81
2G\	2d\	2B\	2g/
2G\	2d\	2B\	2g/
2B\	2d\	2G/	2g/
2B\	2d\	2G/	2g/
=82	=82	=82	=82
2G\	2d\	2B\	2g/
2G\	2d\	2B\	2g/
2B\	2d\	2G/	2g/
2B\	2d\	2G/	2g/
=83	=83	=83	=83
2G\	2d\	2B\	2g/
2G\	2d\	2B\	2g/
2B\	2d\	2G/	2g/
2B\	2d\	2G/	2g/
=84	=84	=84	=84
1A	1e	2c\	1a
.	.	2c\	.
2r	2r	1B	1b
2G\	2g\	.	.
=85	=85	=85	=85
2A\	2f\	2r	2a/
2A\	1e	2c\	2cc\
1D	.	2d\	2b\
.	[2d\	2d\	[2a/
=86	=86	=86	=86
1E	2d\]	1G	4a/]
.	.	.	4g/
.	2c\	.	1g
1D	[1d	1A	.
.	.	.	2f#i/
=87	=87	=87	=87
2r	1d]	1G	1g
1B-i	.	.	.
.	1r	2d\	2g/
2c\	.	2e\	2a/
=88	=88	=88	=88
1.d	0r	1.f	1.b-i
4c\	.	4e\	4a/
4B-i\	.	4d\	4g/
=89	=89	=89	=89
2d\	0r	2f\	2b-i\
2c\	.	2e\	2a/
2r	.	2r	2r
[2d\	.	[2f\	[2b-i\
=90	=90	=90	=90
2d\]	0r	2f\]	2b-\]
4c\	.	4e\	4a/
4B-i\	.	4d\	4g/
4d\	.	4f\	4b-i\
4c\	.	4e\	4a/
[2d\	.	[2f\	[2b-i\
=91	=91	=91	=91
2d\]	0r	4f\]	4b-yi\]
.	.	4e\	4a/
2B-i\	.	1d	1g
1A	.	.	.
.	.	2c\	2f#i/
=92	=92	=92	=92
1G	1r	1d	0g
2r	2B\	1r	.
2E\	2c\	.	.
=93	=93	=93	=93
2F\	2.d\	0r	1r
2.G\	.	.	.
.	4d\	.	.
.	1d	.	2r
4G\	.	.	.
2G\	.	.	2b\
=94	=94	=94	=94
0r	0r	2e\	2cc\
.	.	2f\	2.dd\
.	.	2.g\	.
.	.	.	4dd\
.	.	.	[2dd\
.	.	4g\	.
=95	=95	=95	=95
0r	2r	1g	2dd\]
.	2c\	.	2ee\
.	2d\	1r	4ff\
.	.	.	4dd\
.	2c\	.	[2ee\
=96	=96	=96	=96
0r	1f	1r	4ee\]
.	.	.	4dd\
.	.	.	1dd
.	1e	2r	.
.	.	2A/	2cc#i\
=97	=97	=97	=97
2r	1d	2B-\	1dd
2F\	.	2A/	.
2G\	2d\	2B-i\	1r
2F\	2d\	2A/	.
=98	=98	=98	=98
2G\	2d\	2B-i\	0r
2F\	2d\	2A/	.
2G\	2d\	3B-i\V	.
.	.	3G/	.
2F\	2d\	.	.
.	.	3A/Z	.
=99	=99	=99	=99
2G\	2d\	3B-i\V	0r
.	.	3G/	.
2F\	2f\	.	.
.	.	3A/Z	.
2G\	2e\	3B-i\V	.
.	.	3G/	.
2B-i\	[2d\	.	.
.	.	[3g\Z	.
=100	=100	=100	=100
1A	2d\]	3g\]V	0r
.	.	3.f#i\	.
.	2c\	.	.
.	.	6e\Z	.
[1G	[1d	1g	.
=101	=101	=101	=101
1G]	1d]	2r	2dd\
.	.	2g\	2b\
1r	1r	2e\	2cc\
.	.	2f\	[2dd\
=102	=102	=102	=102
0r	0r	1g	2dd\]
.	.	.	2.gg\
.	.	1a	.
.	.	.	4ff\
.	.	.	2ff\
=103	=103	=103	=103
0r	0r	2g\	2ee\
.	.	2f\	1dd
.	.	1e	.
.	.	.	4cc\
.	.	.	4b\
=104	=104	=104	=104
2r	2r	2r	1a
1D	1d	1f	.
.	.	.	2a/
2D\	2d\	2f\	2a/
=105	=105	=105	=105
2D\	2d\	2f\	2a/
2D\	2d\	2f\	2a/
1G	1d	[1g	1b
=106	=106	=106	=106
1C	1e	2g\]	0cc
.	.	4f\	.
.	.	4g\	.
1F	1f	2a\	.
.	.	2A/	.
=107	=107	=107	=107
2BB-/	2f\	2B-i\	0r
2B-i\	2f\	2d\	.
2A\	2f\	2c\	.
[2G\	[2e\	[2B-i\	.
=108	=108	=108	=108
4G\]	4e\]	4B-\]	0r
4F\	4d\	4A/	.
2D\	1d	2F/	.
1E	.	1G	.
.	2c#i\	.	.
=109	=109	=109	=109
1D	0d	1A	1r
[1BB-i	.	[1B-i	[1dd
=110	=110	=110	=110
2BB-/]	1.f	2B-\]	2dd\]
2BB-i/	.	2B-i\	2dd\
2BB-i/	.	2B-i\	2dd\
2BB-i/	2f\	2B-i\	2dd\
=111	=111	=111	=111
1F	2f\	2A/	4cc\
.	.	.	4b-i\
.	2f\	1d	4a/
.	.	.	4g/
1r	2f\	.	2b-i\
.	2e\	2c\	[2a/
=112	=112	=112	=112
0r	1d	2B-i\	4a/]
.	.	.	4g/
.	.	2G/	1g
.	1c	1A	.
.	.	.	2f#i/
=113	=113	=113	=113
2r	0d	1G	0g
2G\	.	.	.
2G\	.	2r	.
2G\	.	2B\	.
=114	=114	=114	=114
1F	2r	2A/	0r
.	2d\	2A/	.
1G	2d\	1B	.
.	2d\	.	.
=115	=115	=115	=115
2r	1c	2A/	0r
2A\	.	2c\	.
2G\	1d	4B\	.
.	.	4A/	.
2F\	.	[2d\	.
=116	=116	=116	=116
1E	2r	2d\]	1r
.	2e\	2c#i\	.
1D	2.f\	1d	2r
.	.	.	2a/
.	4d\	.	.
=117	=117	=117	=117
1r	4e\	0r	2g/
.	4f\	.	.
.	1d	.	2f/
2r	.	.	1e
2A\	2c#i\	.	.
=118	=118	=118	=118
4B\	0d	2r	1d
4B\	.	.	.
4B\	.	2G/	.
4B\	.	.	.
2B\	.	2G/	2r
[2A\	.	2F/	2a/
=119	=119	=119	=119
4A\]	0r	2.G/	4b\
4G\	.	.	4b\
1G	.	.	4b\
.	.	4A/	4b\
.	.	2B\	2b\
2F\	.	2c\	[2a/
=120	=120	=120	=120
1G	0r	2B\	4a/]
.	.	.	4g/
.	.	2G/	1g
1r	.	1A	.
.	.	.	2f#i/
=121	=121	=121	=121
*M3/1	*M3/1	*M3/1	*M3/1
*met(O/3)	*met(O/3)	*met(O/3)	*met(O/3)
0G	0B	0G	0g
1E	1c	1G	1g
=122	=122	=122	=122
1D	0d	1.B-i	1f
1.G	.	.	0b-i
.	.	2A/	.
.	1d	1G	.
2F\	.	.	.
=123	=123	=123	=123
0D	1d	1F	0a
.	1d	1f	.
1r	1e	1g	1r
=124	=124	=124	=124
0.r	1d	1a	0.r
.	1B	1.g	.
.	1r	.	.
.	.	2e\	.
=125	=125	=125	=125
1.A	1.c	1e	0.r
.	.	1.f	.
2A\	2c\	.	.
1A	1c	.	.
.	.	2f\	.
=126	=126	=126	=126
1A	1c	1f	0.r
0B-i	0d	1f	.
.	.	1g	.
=127	=127	=127	=127
1A	1e	1a	0.r
1F	1f	1a	.
[1G	1e	1g	.
=128	=128	=128	=128
1G]	1.d	1g	0.r
0A	.	1.f#i	.
.	2B\	.	.
.	1c	.	.
.	.	2e\	.
=129	=129	=129	=129
0.G	0.d	0g	1r
.	.	.	1dd
.	.	1g	1dd
=130	=130	=130	=130
0.r	0.r	1g	1.dd
.	.	1.g	.
.	.	.	2b\
.	.	.	1b
.	.	2e\	.
=131	=131	=131	=131
0.r	0.r	1e	1cc
.	.	1f	1a
.	.	1d	1b
=132	=132	=132	=132
0.r	0.r	1e	1cc
.	.	1f	0dd
.	.	[1g	.
=133	=133	=133	=133
1r	1r	2g\]	1ee
.	.	2f\	.
1r	1r	0a	1ff
1A	1c	.	1ee
=134	=134	=134	=134
1B-i	1d	1g	0dd
0A	0e	0a	.
.	.	.	1cc#i
=135	=135	=135	=135
*M2/1	*M2/1	*M2/1	*M2/1
*met(C|)	*met(C|)	*met(C|)	*met(C|)
1.D	0d	1.f	1dd
.	.	.	2r
4E\	.	4e\	2dd\
4F\	.	4d\	.
=136	=136	=136	=136
1G	2r	2d\	1.dd
.	2d\	1B	.
2r	[1d	.	.
2G\	.	4A/	4cc\
.	.	4G/	4b\
=137	=137	=137	=137
1.G	2d\]	2G/	1.b
.	4c\	2g\	.
.	4B\	.	.
.	[1B	[1g	.
4F\	.	.	4a/
4E\	.	.	4g/
=138	=138	=138	=138
1E	2B\]	2g\]	1g
.	1c	4f\	.
.	.	4e\	.
1A	.	2e\	1cc
.	4B\	[2f\	.
.	4A/	.	.
=139	=139	=139	=139
2G\	2B\	4f\]	1dd
.	.	4e\	.
2F\	1A	1d	.
1E	.	.	1ee
.	2G/	2c#i\	.
=140	=140	=140	=140
0D	0A	1d	1.ff
.	.	2r	.
.	.	2f\	2dd\
=141	=141	=141	=141
1A	1c	2e\	2ee\
.	.	1a	1ff
1B-i	1d	.	.
.	.	2g\	4ee\
.	.	.	4dd\
=142	=142	=142	=142
2.A\	0e	2a\	1.cc
.	.	2A/	.
4G\	.	.	.
4A\	.	2.c\	.
4B\	.	.	.
[2c\	.	.	4b\
.	.	4d\	4a/
=143	=143	=143	=143
4c\]	2r	2e\	2g/
4B\	.	.	.
2A\	2c\	2f\	2a/
2G\	2d\	2g\	2b\
2F\	[2f\	[2a\	2cc\
=144	=144	=144	=144
1D	2f\]	2a\]	1dd
.	4e\	1a	.
.	4d\	.	.
2.A\	2f\	.	[1cc
.	[2e\	2a\	.
4B\	.	.	.
=145	=145	=145	=145
2c\	2e\]	2.g\	2cc\]
2G\	2d\	.	2b\
.	.	4f\	.
2A\	2c\	4e\	2a/
.	.	4d\	.
2E\	2B\	2e\	2g/
=146	=146	=146	=146
2F\	1A	2c\	1f
2D\	.	1d	.
1E	1G	.	[1g
.	.	2c\	.
=147	=147	=147	=147
0D	0A	2.d\	2g/]
.	.	.	2f#i/
.	.	4c\	.
.	.	1A	2f#i/
.	.	.	2e/
=148	=148	=148	=148
0Gl	0Bl	0Gl	0gl
==	==	==	==
*-	*-	*-	*-
!!!RDF**kern: l=long note in original notation
!!!RDF**kern: i=editorial accidental
!!!RDF**kern: V=start of tuplet marker
!!!RDF**kern: Z=end of tuplet marker
!!!ENC:	Jesse Rodin; Victoria Chang 2012/02/05
!!!END:	2012/02/05/
!!!EED:	Jesse Rodin
!!!EEV:	2012/07/26/
!!attribution-level@Jos: 4 (questionable)
!!!ONB:	Translated from MusicXML and edited on 2012/07/26/ by Craig Sapp
!!muse2ps: C^@{COA}?\n@{SCT}^i2I150v85,85,85,150c160
